X: 39945
T: Thorn Hedge, The
R: jig
M: 6/8
K: Edorian
|:E>FE e>fe|d>ed F>GF|A>BA D>ED|dcB AFD|
E>FE e>fe|d>ed F>GF|A>BA D>ED|dcB E3:|
|:G>Ad cBA|B>AB EGA|B2 g/f/ ede|fdA d3|
g>fg fdA|d>cd AFD|E>DE B>AB|A2B e3:|

